X: 1488
T: Andrew Knight's Favourite
R: reel
M: 4/4
K: Cdorian
C2EF GFEc|=BcG=E FEDE|C2EF GFEc|=B_BG=E ~F2EF|C2EF Gc (3edc|
M:6/4
d=BG^c ^A^F=c=A FGED|[M:4/4]C2EF Gc (3edc|1 d=BGB c4:|2 d=BGB c3d||
|:e2ed egfe|d>ed^c =cGEG|d3c defd|cBG=B c4|
c2GE =B2FD|B2FD CDEF|G2GF Gc (3edc|d=BGB c3d:|

